img/subtract.svg

<svg fill="none" height="331" viewBox="0 0 330 331" width="330" xmlns="http://www.w3.org/2000/svg"><path clip-rule="evenodd" d="m245.476 309.462c50.368-28.272 84.412-82.262 84.412-144.219 0-91.2354-73.823-165.1963958-164.888-165.1963958-91.0643 0-164.886971 73.9609958-164.886971 165.1963958 0 53.8 25.670071 101.594 65.408571 131.756l6.0487-7.576c8.0679-10.106 12.2124-22.796 11.6678-35.725l-3.8076-90.369c-.1533-3.637.4359-7.267 1.7291-10.669l24.7244-64.9986c1.41-3.7084 5.392-5.7479 9.218-4.7201 4.033 1.0822 6.477 5.1773 5.521 9.2483l-14.861 63.2944c-.971 4.135-.947 8.443.072 12.567l11.842 47.962c1.052 4.26 6.966 4.602 8.501.491l2.985-7.999c2.406-6.445 3.746-13.241 3.97-20.118l.755-23.202c.157-4.843 4.232-8.626 9.064-8.414 4.219.185 7.694 3.381 8.238 7.576l7.017 54.119c2.286 17.633-.734 35.548-8.674 51.451l-27.402 54.884c13.67 3.677 28.042 5.639 42.87 5.639 3.835 0 7.638-.131 11.407-.389l-2.94-10.992c-3.015-11.277-3.795-23.037-2.294-34.615l8.251-63.637c.544-4.195 4.019-7.391 8.238-7.576 4.832-.211 8.907 3.571 9.064 8.415l.755 23.201c.223 6.878 1.564 13.673 3.97 20.119l2.985 7.999c1.535 4.11 7.449 3.768 8.501-.492l11.842-47.962c1.019-4.123 1.043-8.431.072-12.567l-14.861-63.294c-.956-4.071 1.488-8.167 5.521-9.249 3.826-1.027 7.807 1.012 9.218 4.72l24.724 64.999c1.294 3.402 1.882 7.032 1.728 10.669l-3.223 76.542c-.192 4.56-1.048 8.972-2.482 13.131z" fill="#f66" fill-rule="evenodd"/></svg>

<svg width="330" height="331" viewBox="0 0 330 331" fill="none" xmlns="http://www.w3.org/2000/svg">
<path fill-rule="evenodd" clip-rule="evenodd" d="M245.476 309.462C295.844 281.19 329.888 227.2 329.888 165.243C329.888 74.0076 256.065 0.0466042 165 0.0466042C73.9357 0.0466042 0.113029 74.0076 0.113029 165.243C0.113029 219.043 25.7831 266.837 65.5216 296.999L71.5703 289.423C79.6382 279.317 83.7827 266.627 83.2381 253.698L79.4305 163.329C79.2772 159.692 79.8664 156.062 81.1596 152.66L105.884 87.6614C107.294 83.953 111.276 81.9135 115.102 82.9413C119.135 84.0235 121.579 88.1186 120.623 92.1896L105.762 155.484C104.791 159.619 104.815 163.927 105.834 168.051L117.676 216.013C118.728 220.273 124.642 220.615 126.177 216.504L129.162 208.505C131.568 202.06 132.908 195.264 133.132 188.387L133.887 165.185C134.044 160.342 138.119 156.559 142.951 156.771C147.17 156.956 150.645 160.152 151.189 164.347L158.206 218.466C160.492 236.099 157.472 254.014 149.532 269.917L122.13 324.801C135.8 328.478 150.172 330.44 165 330.44C168.835 330.44 172.638 330.309 176.407 330.051L173.467 319.059C170.452 307.782 169.672 296.022 171.173 284.444L179.424 220.807C179.968 216.612 183.443 213.416 187.662 213.231C192.494 213.02 196.569 216.802 196.726 221.646L197.481 244.847C197.704 251.725 199.045 258.52 201.451 264.966L204.436 272.965C205.971 277.075 211.885 276.733 212.937 272.473L224.779 224.511C225.798 220.388 225.822 216.08 224.851 211.944L209.99 148.65C209.034 144.579 211.478 140.483 215.511 139.401C219.337 138.374 223.318 140.413 224.729 144.121L249.453 209.12C250.747 212.522 251.335 216.152 251.181 219.789L247.958 296.331C247.766 300.891 246.91 305.303 245.476 309.462Z" fill="#FF6666"/>
</svg>
